X:175
T: WIE HERRLICH LEUCHTET MIR DIE NATUR
N: B0209
O: Europa, Mitteleuropa, Deutschland
R: Jahreszeiten - Lied, Fruehling
M: 2/4
L: 1/8
K: Eb
B | c2Bc | BAGA | GFEG | G2F
F | G2=A2 | B2ce | d2c2 | B2z
B | B2GE | e2cA | cBAG | G2F
F | F2GA | Bcde | E2F2 | AG2
B | B2GE | e2cA | cBAG | G2F
F | F2GA | Bcde | E2GF | E2z

@@@ Tune index: 1978
